src/assets/images/logo-blue.svg

<svg width="717" height="125" fill="none" xmlns="http://www.w3.org/2000/svg"><path d="M203.32 97.536c-6.72 0-12.832-1.568-18.336-4.704-5.44-3.2-9.728-7.552-12.864-13.056-3.136-5.504-4.704-11.552-4.704-18.144 0-6.592 1.568-12.64 4.704-18.144 3.136-5.504 7.424-9.824 12.864-12.96 5.504-3.2 11.616-4.8 18.336-4.8 6.72 0 12.8 1.6 18.24 4.8 5.504 3.136 9.824 7.456 12.96 12.96 3.136 5.504 4.704 11.552 4.704 18.144 0 6.592-1.568 12.64-4.704 18.144-3.136 5.504-7.456 9.856-12.96 13.056-5.44 3.136-11.52 4.704-18.24 4.704zm0-12.288c4.224 0 8.096-.992 11.616-2.976 3.52-1.984 6.272-4.768 8.256-8.352 2.048-3.584 3.072-7.68 3.072-12.288 0-4.608-1.024-8.704-3.072-12.288-1.984-3.584-4.736-6.368-8.256-8.352-3.52-1.984-7.392-2.976-11.616-2.976-4.224 0-8.096.992-11.616 2.976-3.456 1.984-6.208 4.768-8.256 8.352-1.984 3.584-2.976 7.68-2.976 12.288 0 4.608.992 8.704 2.976 12.288 2.048 3.584 4.8 6.368 8.256 8.352 3.52 1.984 7.392 2.976 11.616 2.976zm46.065-38.208h11.808v5.952h.768c1.344-2.112 3.296-3.872 5.856-5.28 2.56-1.472 5.504-2.208 8.832-2.208 4.416 0 8.416 1.12 12 3.36 3.648 2.176 6.496 5.248 8.544 9.216 2.048 3.968 3.072 8.448 3.072 13.44 0 5.056-1.024 9.568-3.072 13.536-2.048 3.904-4.896 6.976-8.544 9.216-3.584 2.176-7.584 3.264-12 3.264-3.328 0-6.304-.704-8.928-2.112-2.56-1.408-4.48-3.168-5.76-5.28h-.768l.768 6.912v19.68h-12.576V47.04zm25.056 38.88a12.75 12.75 0 006.624-1.824c2.048-1.216 3.68-2.912 4.896-5.088 1.216-2.176 1.824-4.672 1.824-7.488 0-2.816-.608-5.312-1.824-7.488-1.216-2.176-2.848-3.84-4.896-4.992a12.75 12.75 0 00-6.624-1.824c-2.304 0-4.48.608-6.528 1.824-2.048 1.152-3.68 2.816-4.896 4.992-1.216 2.176-1.824 4.672-1.824 7.488 0 2.816.608 5.312 1.824 7.488 1.216 2.176 2.848 3.872 4.896 5.088 2.048 1.216 4.224 1.824 6.528 1.824zm58.46 11.616c-4.864 0-9.248-1.12-13.152-3.36-3.904-2.24-6.976-5.312-9.216-9.216-2.176-3.968-3.264-8.416-3.264-13.344 0-4.672 1.088-8.992 3.264-12.96 2.176-4.032 5.184-7.232 9.024-9.6 3.84-2.368 8.128-3.552 12.864-3.552 5.056 0 9.408 1.088 13.056 3.264 3.648 2.176 6.4 5.152 8.256 8.928 1.92 3.776 2.88 7.968 2.88 12.576 0 1.472-.096 2.88-.288 4.224h-36.768c.64 3.904 2.176 6.88 4.608 8.928 2.496 1.984 5.472 2.976 8.928 2.976 2.88 0 5.344-.608 7.392-1.824 2.112-1.28 3.776-2.976 4.992-5.088l10.176 4.992c-4.992 8.704-12.576 13.056-22.752 13.056zm11.616-31.968c-.128-1.536-.704-3.04-1.728-4.512-.96-1.536-2.336-2.784-4.128-3.744-1.728-1.024-3.776-1.536-6.144-1.536-3.008 0-5.6.896-7.776 2.688-2.112 1.728-3.648 4.096-4.608 7.104h24.384zM366.3 47.04h11.808v6.144h.768c1.472-2.368 3.552-4.224 6.24-5.568 2.688-1.408 5.6-2.112 8.736-2.112 5.888 0 10.368 1.792 13.44 5.376 3.072 3.584 4.608 8.48 4.608 14.688V96h-12.576V67.104c0-3.136-.8-5.568-2.4-7.296-1.6-1.728-3.84-2.592-6.72-2.592-3.392 0-6.144 1.312-8.256 3.936-2.048 2.624-3.072 5.92-3.072 9.888V96H366.3V47.04zm79.933 50.496c-6.016 0-11.328-1.696-15.936-5.088-4.608-3.392-7.84-8.192-9.696-14.4l12.192-4.8c.96 3.648 2.592 6.56 4.896 8.736 2.304 2.176 5.184 3.264 8.64 3.264 2.88 0 5.344-.704 7.392-2.112 2.048-1.472 3.072-3.488 3.072-6.048s-.992-4.64-2.976-6.24c-1.92-1.664-5.376-3.424-10.368-5.28l-4.224-1.536c-4.416-1.536-8.192-3.872-11.328-7.008-3.136-3.2-4.704-7.2-4.704-12 0-3.584.928-6.848 2.784-9.792 1.856-2.944 4.48-5.248 7.872-6.912 3.392-1.728 7.232-2.592 11.52-2.592 6.208 0 11.104 1.472 14.688 4.416 3.584 2.88 6.048 6.272 7.392 10.176l-11.424 4.8c-.704-2.112-1.952-3.872-3.744-5.28-1.728-1.472-3.968-2.208-6.72-2.208-2.816 0-5.152.672-7.008 2.016-1.792 1.28-2.688 2.976-2.688 5.088 0 2.048.864 3.808 2.592 5.28 1.728 1.408 4.576 2.784 8.544 4.128l4.32 1.44c5.952 2.048 10.496 4.768 13.632 8.16 3.2 3.328 4.8 7.712 4.8 13.152 0 4.48-1.152 8.288-3.456 11.424-2.304 3.072-5.28 5.376-8.928 6.912-3.584 1.536-7.296 2.304-11.136 2.304zM480.3 27.264h12.576V44.64l-.768 8.544h.768c1.408-2.304 3.456-4.16 6.144-5.568 2.688-1.408 5.6-2.112 8.736-2.112 5.952 0 10.496 1.792 13.632 5.376 3.2 3.52 4.8 8.416 4.8 14.688V96h-12.576V67.104c0-3.136-.864-5.568-2.592-7.296-1.664-1.728-3.904-2.592-6.72-2.592-3.328 0-6.08 1.344-8.256 4.032-2.112 2.688-3.168 5.984-3.168 9.888V96H480.3V27.264zm64.854 14.4c-2.24 0-4.16-.8-5.76-2.4-1.6-1.6-2.4-3.52-2.4-5.76 0-2.24.8-4.128 2.4-5.664 1.6-1.6 3.52-2.4 5.76-2.4 2.24 0 4.128.8 5.664 2.4 1.6 1.536 2.4 3.424 2.4 5.664 0 2.24-.8 4.16-2.4 5.76-1.536 1.6-3.424 2.4-5.664 2.4zm-6.336 5.376h12.576V96h-12.576V47.04zm25.38 0h11.808v5.952h.768c1.344-2.112 3.296-3.872 5.856-5.28 2.56-1.472 5.504-2.208 8.832-2.208 4.416 0 8.416 1.12 12 3.36 3.648 2.176 6.496 5.248 8.544 9.216 2.048 3.968 3.072 8.448 3.072 13.44 0 5.056-1.024 9.568-3.072 13.536-2.048 3.904-4.896 6.976-8.544 9.216-3.584 2.176-7.584 3.264-12 3.264-3.328 0-6.304-.704-8.928-2.112-2.56-1.408-4.48-3.168-5.76-5.28h-.768l.768 6.912v19.68h-12.576V47.04zm25.056 38.88a12.75 12.75 0 006.624-1.824c2.048-1.216 3.68-2.912 4.896-5.088 1.216-2.176 1.824-4.672 1.824-7.488 0-2.816-.608-5.312-1.824-7.488-1.216-2.176-2.848-3.84-4.896-4.992a12.75 12.75 0 00-6.624-1.824c-2.304 0-4.48.608-6.528 1.824-2.048 1.152-3.68 2.816-4.896 4.992-1.216 2.176-1.824 4.672-1.824 7.488 0 2.816.608 5.312 1.824 7.488 1.216 2.176 2.848 3.872 4.896 5.088 2.048 1.216 4.224 1.824 6.528 1.824zm56.539-58.656h14.88L686.497 96h-14.304l-5.76-16.416h-26.304L634.369 96h-14.304l25.728-68.736zm16.416 40.416l-6.048-17.28-2.496-8.256h-.768l-2.496 8.256-6.144 17.28h17.952zm33.569-40.416h12.96V96h-12.96V27.264z" fill="url(#paint0_linear_1868_1914)"/><path d="M116.627 31.25a62.496 62.496 0 017.955 38.468 62.495 62.495 0 01-51.113 54.313 62.5 62.5 0 01-38.88-5.608l5.18-10.379a50.9 50.9 0 0073.292-39.666 50.906 50.906 0 00-6.479-31.328l10.045-5.8z" fill="url(#paint1_linear_1868_1914)"/><path d="M8.374 93.75a62.5 62.5 0 0185.35-85.39L87.93 18.407a50.9 50.9 0 00-75.896 37.455 50.9 50.9 0 006.385 32.089l-10.045 5.8z" fill="url(#paint2_linear_1868_1914)"/><path d="M102.567 22.683c.196-2.377 2.706-3.826 4.862-2.808l15.005 7.088c2.492 1.177 2.635 4.668.249 6.046l-16.369 9.451c-2.386 1.378-5.338-.492-5.112-3.239l1.365-16.538z" fill="url(#paint3_linear_1868_1914)"/><path d="M24.915 103.333c-.196 2.377-2.706 3.826-4.862 2.808L5.048 99.053c-2.492-1.177-2.636-4.668-.25-6.046l16.37-9.451c2.386-1.378 5.338.492 5.111 3.238l-1.364 16.539z" fill="url(#paint4_linear_1868_1914)"/><defs><linearGradient id="paint0_linear_1868_1914" x1="163" y1="64" x2="717" y2="64" gradientUnits="userSpaceOnUse"><stop stop-color="#024EC9"/><stop offset="1" stop-color="#0061FF"/></linearGradient><linearGradient id="paint1_linear_1868_1914" x1="34.59" y1="78.126" x2="125.001" y2="78.126" gradientUnits="userSpaceOnUse"><stop stop-color="#024EC9"/><stop offset="1" stop-color="#0057E4"/></linearGradient><linearGradient id="paint2_linear_1868_1914" x1="0" y1="46.875" x2="93.725" y2="46.875" gradientUnits="userSpaceOnUse"><stop stop-color="#024EC9"/><stop offset="1" stop-color="#0057E4"/></linearGradient><linearGradient id="paint3_linear_1868_1914" x1="101.19" y1="31.235" x2="124.391" y2="31.235" gradientUnits="userSpaceOnUse"><stop stop-color="#024EC9"/><stop offset="1" stop-color="#0057E4"/></linearGradient><linearGradient id="paint4_linear_1868_1914" x1="3.091" y1="94.781" x2="26.292" y2="94.781" gradientUnits="userSpaceOnUse"><stop stop-color="#024EC9"/><stop offset="1" stop-color="#0057E4"/></linearGradient></defs></svg>

<svg width="717" height="125" viewBox="0 0 717 125" fill="none" xmlns="http://www.w3.org/2000/svg">
    <path d="M203.32 97.536C196.6 97.536 190.488 95.968 184.984 92.832C179.544 89.632 175.256 85.28 172.12 79.776C168.984 74.272 167.416 68.224 167.416 61.632C167.416 55.04 168.984 48.992 172.12 43.488C175.256 37.984 179.544 33.664 184.984 30.528C190.488 27.328 196.6 25.728 203.32 25.728C210.04 25.728 216.12 27.328 221.56 30.528C227.064 33.664 231.384 37.984 234.52 43.488C237.656 48.992 239.224 55.04 239.224 61.632C239.224 68.224 237.656 74.272 234.52 79.776C231.384 85.28 227.064 89.632 221.56 92.832C216.12 95.968 210.04 97.536 203.32 97.536ZM203.32 85.248C207.544 85.248 211.416 84.256 214.936 82.272C218.456 80.288 221.208 77.504 223.192 73.92C225.24 70.336 226.264 66.24 226.264 61.632C226.264 57.024 225.24 52.928 223.192 49.344C221.208 45.76 218.456 42.976 214.936 40.992C211.416 39.008 207.544 38.016 203.32 38.016C199.096 38.016 195.224 39.008 191.704 40.992C188.248 42.976 185.496 45.76 183.448 49.344C181.464 52.928 180.472 57.024 180.472 61.632C180.472 66.24 181.464 70.336 183.448 73.92C185.496 77.504 188.248 80.288 191.704 82.272C195.224 84.256 199.096 85.248 203.32 85.248ZM249.385 47.04H261.193V52.992H261.961C263.305 50.88 265.257 49.12 267.817 47.712C270.377 46.24 273.321 45.504 276.649 45.504C281.065 45.504 285.065 46.624 288.649 48.864C292.297 51.04 295.145 54.112 297.193 58.08C299.241 62.048 300.265 66.528 300.265 71.52C300.265 76.576 299.241 81.088 297.193 85.056C295.145 88.96 292.297 92.032 288.649 94.272C285.065 96.448 281.065 97.536 276.649 97.536C273.321 97.536 270.345 96.832 267.721 95.424C265.161 94.016 263.241 92.256 261.961 90.144H261.193L261.961 97.056V116.736H249.385V47.04ZM274.441 85.92C276.809 85.92 279.017 85.312 281.065 84.096C283.113 82.88 284.745 81.184 285.961 79.008C287.177 76.832 287.785 74.336 287.785 71.52C287.785 68.704 287.177 66.208 285.961 64.032C284.745 61.856 283.113 60.192 281.065 59.04C279.017 57.824 276.809 57.216 274.441 57.216C272.137 57.216 269.961 57.824 267.913 59.04C265.865 60.192 264.233 61.856 263.017 64.032C261.801 66.208 261.193 68.704 261.193 71.52C261.193 74.336 261.801 76.832 263.017 79.008C264.233 81.184 265.865 82.88 267.913 84.096C269.961 85.312 272.137 85.92 274.441 85.92ZM332.901 97.536C328.037 97.536 323.653 96.416 319.749 94.176C315.845 91.936 312.773 88.864 310.533 84.96C308.357 80.992 307.269 76.544 307.269 71.616C307.269 66.944 308.357 62.624 310.533 58.656C312.709 54.624 315.717 51.424 319.557 49.056C323.397 46.688 327.685 45.504 332.421 45.504C337.477 45.504 341.829 46.592 345.477 48.768C349.125 50.944 351.877 53.92 353.733 57.696C355.653 61.472 356.613 65.664 356.613 70.272C356.613 71.744 356.517 73.152 356.325 74.496H319.557C320.197 78.4 321.733 81.376 324.165 83.424C326.661 85.408 329.637 86.4 333.093 86.4C335.973 86.4 338.437 85.792 340.485 84.576C342.597 83.296 344.261 81.6 345.477 79.488L355.653 84.48C350.661 93.184 343.077 97.536 332.901 97.536ZM344.517 65.568C344.389 64.032 343.813 62.528 342.789 61.056C341.829 59.52 340.453 58.272 338.661 57.312C336.933 56.288 334.885 55.776 332.517 55.776C329.509 55.776 326.917 56.672 324.741 58.464C322.629 60.192 321.093 62.56 320.133 65.568H344.517ZM366.3 47.04H378.108V53.184H378.876C380.348 50.816 382.428 48.96 385.116 47.616C387.804 46.208 390.716 45.504 393.852 45.504C399.74 45.504 404.22 47.296 407.292 50.88C410.364 54.464 411.9 59.36 411.9 65.568V96H399.324V67.104C399.324 63.968 398.524 61.536 396.924 59.808C395.324 58.08 393.084 57.216 390.204 57.216C386.812 57.216 384.06 58.528 381.948 61.152C379.9 63.776 378.876 67.072 378.876 71.04V96H366.3V47.04ZM446.233 97.536C440.217 97.536 434.905 95.84 430.297 92.448C425.689 89.056 422.457 84.256 420.601 78.048L432.793 73.248C433.753 76.896 435.385 79.808 437.689 81.984C439.993 84.16 442.873 85.248 446.329 85.248C449.209 85.248 451.673 84.544 453.721 83.136C455.769 81.664 456.793 79.648 456.793 77.088C456.793 74.528 455.801 72.448 453.817 70.848C451.897 69.184 448.441 67.424 443.449 65.568L439.225 64.032C434.809 62.496 431.033 60.16 427.897 57.024C424.761 53.824 423.193 49.824 423.193 45.024C423.193 41.44 424.121 38.176 425.977 35.232C427.833 32.288 430.457 29.984 433.849 28.32C437.241 26.592 441.081 25.728 445.369 25.728C451.577 25.728 456.473 27.2 460.057 30.144C463.641 33.024 466.105 36.416 467.449 40.32L456.025 45.12C455.321 43.008 454.073 41.248 452.281 39.84C450.553 38.368 448.313 37.632 445.561 37.632C442.745 37.632 440.409 38.304 438.553 39.648C436.761 40.928 435.865 42.624 435.865 44.736C435.865 46.784 436.729 48.544 438.457 50.016C440.185 51.424 443.033 52.8 447.001 54.144L451.321 55.584C457.273 57.632 461.817 60.352 464.953 63.744C468.153 67.072 469.753 71.456 469.753 76.896C469.753 81.376 468.601 85.184 466.297 88.32C463.993 91.392 461.017 93.696 457.369 95.232C453.785 96.768 450.073 97.536 446.233 97.536ZM480.3 27.264H492.876V44.64L492.108 53.184H492.876C494.284 50.88 496.332 49.024 499.02 47.616C501.708 46.208 504.62 45.504 507.756 45.504C513.708 45.504 518.252 47.296 521.388 50.88C524.588 54.4 526.188 59.296 526.188 65.568V96H513.612V67.104C513.612 63.968 512.748 61.536 511.02 59.808C509.356 58.08 507.116 57.216 504.3 57.216C500.972 57.216 498.22 58.56 496.044 61.248C493.932 63.936 492.876 67.232 492.876 71.136V96H480.3V27.264ZM545.154 41.664C542.914 41.664 540.994 40.864 539.394 39.264C537.794 37.664 536.994 35.744 536.994 33.504C536.994 31.264 537.794 29.376 539.394 27.84C540.994 26.24 542.914 25.44 545.154 25.44C547.394 25.44 549.282 26.24 550.818 27.84C552.418 29.376 553.218 31.264 553.218 33.504C553.218 35.744 552.418 37.664 550.818 39.264C549.282 40.864 547.394 41.664 545.154 41.664ZM538.818 47.04H551.394V96H538.818V47.04ZM564.198 47.04H576.006V52.992H576.774C578.118 50.88 580.07 49.12 582.63 47.712C585.19 46.24 588.134 45.504 591.462 45.504C595.878 45.504 599.878 46.624 603.462 48.864C607.11 51.04 609.958 54.112 612.006 58.08C614.054 62.048 615.078 66.528 615.078 71.52C615.078 76.576 614.054 81.088 612.006 85.056C609.958 88.96 607.11 92.032 603.462 94.272C599.878 96.448 595.878 97.536 591.462 97.536C588.134 97.536 585.158 96.832 582.534 95.424C579.974 94.016 578.054 92.256 576.774 90.144H576.006L576.774 97.056V116.736H564.198V47.04ZM589.254 85.92C591.622 85.92 593.83 85.312 595.878 84.096C597.926 82.88 599.558 81.184 600.774 79.008C601.99 76.832 602.598 74.336 602.598 71.52C602.598 68.704 601.99 66.208 600.774 64.032C599.558 61.856 597.926 60.192 595.878 59.04C593.83 57.824 591.622 57.216 589.254 57.216C586.95 57.216 584.774 57.824 582.726 59.04C580.678 60.192 579.046 61.856 577.83 64.032C576.614 66.208 576.006 68.704 576.006 71.52C576.006 74.336 576.614 76.832 577.83 79.008C579.046 81.184 580.678 82.88 582.726 84.096C584.774 85.312 586.95 85.92 589.254 85.92ZM645.793 27.264H660.673L686.497 96H672.193L666.433 79.584H640.129L634.369 96H620.065L645.793 27.264ZM662.209 67.68L656.161 50.4L653.665 42.144H652.897L650.401 50.4L644.257 67.68H662.209ZM695.778 27.264H708.738V96H695.778V27.264Z" fill="url(#paint0_linear_1868_1914)"/>
    <path d="M116.627 31.2502C123.344 42.8845 126.134 56.3733 124.582 69.7176C123.031 83.062 117.222 95.5511 108.015 105.334C98.8084 115.117 86.6943 121.674 73.4688 124.031C60.2433 126.389 46.61 124.422 34.5898 118.423L39.7697 108.044C49.5588 112.93 60.662 114.531 71.4332 112.611C82.2038 110.691 92.07 105.352 99.568 97.3845C107.066 89.4172 111.798 79.2457 113.061 68.3781C114.324 57.5106 112.052 46.5249 106.582 37.05L116.627 31.2502Z" fill="url(#paint1_linear_1868_1914)"/>
    <path d="M8.37355 93.7506C1.49557 81.838 -1.26005 67.9882 0.533811 54.3501C2.32767 40.7116 8.57088 28.0458 18.2955 18.3166C28.0201 8.58737 40.6827 2.33815 54.32 0.537726C67.9581 -1.2627 81.8086 1.48637 93.7246 8.35861L87.9295 18.4068C78.2252 12.81 66.9451 10.5712 55.8385 12.0375C44.7319 13.5037 34.4193 18.5932 26.4995 26.5167C18.5797 34.4403 13.4952 44.7554 12.0342 55.8624C10.5733 66.9697 12.8175 78.2492 18.419 87.9507L8.37355 93.7506Z" fill="url(#paint2_linear_1868_1914)"/>
    <path d="M102.567 22.6827C102.763 20.3058 105.273 18.8567 107.429 19.8753L122.434 26.9634C124.926 28.1403 125.069 31.6315 122.683 33.0092L106.314 42.46C103.928 43.8378 100.976 41.9678 101.202 39.2215L102.567 22.6827Z" fill="url(#paint3_linear_1868_1914)"/>
    <path d="M24.9153 103.333C24.7193 105.71 22.2092 107.159 20.0528 106.141L5.04772 99.0526C2.55617 97.8756 2.41239 94.3845 4.79881 93.0068L21.168 83.5559C23.5543 82.1781 26.5059 84.0484 26.2794 86.7943L24.9153 103.333Z" fill="url(#paint4_linear_1868_1914)"/>
    <defs>
        <linearGradient id="paint0_linear_1868_1914" x1="163" y1="64" x2="717" y2="64" gradientUnits="userSpaceOnUse">
            <stop stop-color="#024EC9"/>
            <stop offset="1" stop-color="#0061FF"/>
        </linearGradient>
        <linearGradient id="paint1_linear_1868_1914" x1="34.5898" y1="78.1257" x2="125.001" y2="78.1257" gradientUnits="userSpaceOnUse">
            <stop stop-color="#024EC9"/>
            <stop offset="1" stop-color="#0057E4"/>
        </linearGradient>
        <linearGradient id="paint2_linear_1868_1914" x1="0" y1="46.8753" x2="93.7246" y2="46.8753" gradientUnits="userSpaceOnUse">
            <stop stop-color="#024EC9"/>
            <stop offset="1" stop-color="#0057E4"/>
        </linearGradient>
        <linearGradient id="paint3_linear_1868_1914" x1="101.19" y1="31.2345" x2="124.391" y2="31.2345" gradientUnits="userSpaceOnUse">
            <stop stop-color="#024EC9"/>
            <stop offset="1" stop-color="#0057E4"/>
        </linearGradient>
        <linearGradient id="paint4_linear_1868_1914" x1="3.09106" y1="94.7814" x2="26.2917" y2="94.7814" gradientUnits="userSpaceOnUse">
            <stop stop-color="#024EC9"/>
            <stop offset="1" stop-color="#0057E4"/>
        </linearGradient>
    </defs>
</svg>
